X: 253
T:Leslie's
M:C|
L:1/8
R:reel
D:Kevin and Samus Glackin: Northern Lights
Z:Devin McCabe
K:AMix
e~c3 ecac|eccA Bcdf|e~c3 ece=g|1fdBc defa:|2fdBc defg||
!a/2b/2a ea gbeg|afge fBBg|a2ea gbec|dcBc defg|
!a/2b/2a ea gbeg|afge fBBg|agfe fedc|Bcde fgaf||
